report_00007_2020-12-11T15:55:29.892Z/network-rtt/comparison/sorted/7_vs_8.svg

<svg width="640" height="500" xmlns="http://www.w3.org/2000/svg" xmlns:xlink="http://www.w3.org/1999/xlink"><path fill="#fff" d="M0 0h640v500H0z"/><defs><path id="d" stroke-width=".222" stroke="currentColor" d="M-1-1h2v2h-2z"/><path id="b" stroke-width=".222" stroke="currentColor" d="M0-1.33l-1.33 2h2.66z"/><path id="f" stroke-width=".222" stroke="currentColor" d="M0 1.33L1.265.411.782-1.067l-1.564-.009-.483 1.487z"/><use xlink:href="#b" id="c" stroke="currentColor" transform="rotate(180)"/><use xlink:href="#d" id="e" stroke="currentColor" transform="rotate(45)"/><circle id="a" stroke-width=".222" stroke="currentColor" cx="0" cy="0" r="1"/></defs><g fill="none" color="#000" stroke="currentColor"><path stroke="#000" d="M62.2 416.7h9m543.8 0h-9"/><text transform="translate(53.9 420.6)" stroke="none" fill="#000" font-family="Arial" font-size="12" text-anchor="end"><tspan>0.05</tspan></text></g><g fill="none" color="#000" stroke="currentColor"><path stroke="#000" d="M62.2 330.3h9m543.8 0h-9"/><text transform="translate(53.9 334.2)" stroke="none" fill="#000" font-family="Arial" font-size="12" text-anchor="end"><tspan>0.1</tspan></text></g><g fill="none" color="#000" stroke="currentColor"><path stroke="#000" d="M62.2 243.9h9m543.8 0h-9"/><text transform="translate(53.9 247.8)" stroke="none" fill="#000" font-family="Arial" font-size="12" text-anchor="end"><tspan>0.15</tspan></text></g><g fill="none" color="#000" stroke="currentColor"><path stroke="#000" d="M62.2 157.5h9m543.8 0h-9"/><text transform="translate(53.9 161.4)" stroke="none" fill="#000" font-family="Arial" font-size="12" text-anchor="end"><tspan>0.2</tspan></text></g><g fill="none" color="#000" stroke="currentColor"><path stroke="#000" d="M62.2 71.1h9m543.8 0h-9"/><text transform="translate(53.9 75)" stroke="none" fill="#000" font-family="Arial" font-size="12" text-anchor="end"><tspan>0.25</tspan></text></g><g fill="none" color="#000" stroke="currentColor"><path stroke="#000" d="M62.2 446v-9m0-418.9v9"/><text transform="translate(62.2 467.9)" stroke="none" fill="#000" font-family="Arial" font-size="12" text-anchor="middle"><tspan>0</tspan></text></g><g fill="none" color="#000" stroke="currentColor"><path stroke="#000" d="M118 446v-9m0-418.9v9"/><text transform="translate(118 467.9)" stroke="none" fill="#000" font-family="Arial" font-size="12" text-anchor="middle"><tspan>10</tspan></text></g><g fill="none" color="#000" stroke="currentColor"><path stroke="#000" d="M173.9 446v-9m0-418.9v9"/><text transform="translate(173.9 467.9)" stroke="none" fill="#000" font-family="Arial" font-size="12" text-anchor="middle"><tspan>20</tspan></text></g><g fill="none" color="#000" stroke="currentColor"><path stroke="#000" d="M229.7 446v-9m0-418.9v9"/><text transform="translate(229.7 467.9)" stroke="none" fill="#000" font-family="Arial" font-size="12" text-anchor="middle"><tspan>30</tspan></text></g><g fill="none" color="#000" stroke="currentColor"><path stroke="#000" d="M285.6 446v-9m0-418.9v9"/><text transform="translate(285.6 467.9)" stroke="none" fill="#000" font-family="Arial" font-size="12" text-anchor="middle"><tspan>40</tspan></text></g><g fill="none" color="#000" stroke="currentColor"><path stroke="#000" d="M341.4 446v-9m0-418.9v9"/><text transform="translate(341.4 467.9)" stroke="none" fill="#000" font-family="Arial" font-size="12" text-anchor="middle"><tspan>50</tspan></text></g><g fill="none" color="#000" stroke="currentColor"><path stroke="#000" d="M397.2 446v-9m0-418.9v9"/><text transform="translate(397.2 467.9)" stroke="none" fill="#000" font-family="Arial" font-size="12" text-anchor="middle"><tspan>60</tspan></text></g><g fill="none" color="#000" stroke="currentColor"><path stroke="#000" d="M453.1 446v-9m0-418.9v9"/><text transform="translate(453.1 467.9)" stroke="none" fill="#000" font-family="Arial" font-size="12" text-anchor="middle"><tspan>70</tspan></text></g><g fill="none" color="#000" stroke="currentColor"><path stroke="#000" d="M508.9 446v-9m0-418.9v9"/><text transform="translate(508.9 467.9)" stroke="none" fill="#000" font-family="Arial" font-size="12" text-anchor="middle"><tspan>80</tspan></text></g><g fill="none" color="#000" stroke="currentColor"><path stroke="#000" d="M564.7 446v-9m0-418.9v9"/><text transform="translate(564.7 467.9)" stroke="none" fill="#000" font-family="Arial" font-size="12" text-anchor="middle"><tspan>90</tspan></text></g><path stroke="#000" d="M62.2 18.1V446H615V18.1H62.2z" fill="none" color="#000"/><text transform="translate(279.8 485.9)" stroke="none" fill="#000" font-family="Arial" font-size="12" text-anchor="end" color="#000"><tspan>pages+cached+noexternal+nosvg</tspan></text><path stroke="#9400D3" d="M288.1 482h42.2M62.2 437.8l5.6-4.5 5.6-14.5 5.6-1.9 5.5-2.1 5.6-2.3 5.6-.6 5.6-2 5.6-1 5.6-.5 5.5-2.3 5.6-1.2 5.6-1.7 5.6-.3 5.6-.2 5.6-1.2 5.5-1.9 5.6-1.4 5.6-.5 5.6-.7 5.6-.5 5.6-.2 5.5-.2 5.6-.7 5.6-.3 5.6-.5 5.6-.4 5.6-.1 5.5-.2 5.6-.2h5.6l5.6-.3 5.6-.2 5.6-1.2h5.6l5.5-.4h5.6l5.6-.3 5.6-.9 5.6-.8 5.6-.6 5.5-2h5.6l5.6-.4 5.6-.2 5.6-.6h5.6l5.5-.2 5.6-1.2h5.6l5.6-.5 5.6-.4h5.6l5.5-.2 5.6-1 5.6-.3h5.6l5.6-1.1 5.6-.8 5.5-.9h5.6l5.6-.5 5.6-.2 5.6-.3 5.6-.2h11.1l5.6-2.1 5.6-.9 5.6-1 5.6-3.1 5.6-1.4 5.5-.8 5.6-1.3 5.6-.5 5.6-1.4 5.6-3.1 5.6-.5 5.5-2.9 5.6-1.9 5.6-.7 5.6-.2 5.6-1 5.6-1.2 5.5-2.6 5.6-1.8 5.6-3.4 5.6-.5 5.6-5.7 5.6-5.6 5.5-21.4 5.6-.9 5.6-4.8 5.6-55.6 5.6-36.8 5.6-102.7 5.5-38.4 5.6-9.3h5.6l5.6-38.2" fill="none" color="#000"/><text transform="translate(579.3 485.9)" stroke="none" fill="#000" font-family="Arial" font-size="12" text-anchor="end" color="#000"><tspan>pages+cached+noexternal+noimg</tspan></text><path stroke="#009E73" d="M587.6 482h42.2M62.2 422.7l5.6-5.7 5.6-1.2 5.6-.1 5.5-1.3 5.6-1.3 5.6-3.8 5.6-.6 5.6-1 5.6-1.4 5.5-.2 5.6-2.4 5.6-.3 5.6-1.7 5.6-2.1 5.6-.2 5.5-1.4 5.6-.5 5.6-.5 5.6-.7 5.6-.3 5.6-.2h5.5l5.6-.4h5.6l5.6-.8 5.6-.5 5.6-.2 5.5-.4 5.6-.1 5.6-.2 5.6-.2 5.6-.8 5.6-.4h5.6l5.5-.3 5.6-1.4h5.6l5.6-.4 5.6-.7h5.6l5.5-.7 5.6-1 5.6-.5 5.6-.4h5.6l5.6-.3h5.5l5.6-1.2 5.6-1h5.6l5.6-.2 5.6-.7h5.5l5.6-.2h5.6l5.6-.2 5.6-.5 5.6-.3 5.5-.2h11.2l5.6-.5 5.6-2.4 5.6-.4 5.5-1.4h5.6l5.6-.3 5.6-.3 5.6-.6h5.6l5.6-1.7 5.5-3.1 5.6-.3 5.6-.7h5.6l5.6-3 5.6-1.7 5.5-.5 5.6-1.1 5.6-.1 5.6-1.6 5.6-1 5.6-.2 5.5-2.6 5.6-2.1 5.6-.8 5.6-2.4 5.6-.4 5.6-12.8 5.5-19.9 5.6-3.9 5.6-2.1 5.6-.3 5.6-2.5 5.6-38.8 5.5-44.1 5.6-3.8 5.6-28.7L615 81.3" fill="none" color="#000"/><g fill="none" color="#000" stroke="currentColor"><path stroke="#000" d="M62.2 18.1V446H615V18.1H62.2z"/></g></svg>

<?xml version="1.0" encoding="utf-8"  standalone="no"?>
<svg 
 width="640" height="500"
 viewBox="0 0 640 500"
 xmlns="http://www.w3.org/2000/svg"
 xmlns:xlink="http://www.w3.org/1999/xlink"
>

<title>Gnuplot</title>
<desc>Produced by GNUPLOT 5.4 patchlevel 0 </desc>

<g id="gnuplot_canvas">

<rect x="0" y="0" width="640" height="500" fill="#ffffff"/>
<defs>

	<circle id='gpDot' r='0.5' stroke-width='0.5' stroke='currentColor'/>
	<path id='gpPt0' stroke-width='0.222' stroke='currentColor' d='M-1,0 h2 M0,-1 v2'/>
	<path id='gpPt1' stroke-width='0.222' stroke='currentColor' d='M-1,-1 L1,1 M1,-1 L-1,1'/>
	<path id='gpPt2' stroke-width='0.222' stroke='currentColor' d='M-1,0 L1,0 M0,-1 L0,1 M-1,-1 L1,1 M-1,1 L1,-1'/>
	<rect id='gpPt3' stroke-width='0.222' stroke='currentColor' x='-1' y='-1' width='2' height='2'/>
	<rect id='gpPt4' stroke-width='0.222' stroke='currentColor' fill='currentColor' x='-1' y='-1' width='2' height='2'/>
	<circle id='gpPt5' stroke-width='0.222' stroke='currentColor' cx='0' cy='0' r='1'/>
	<use xlink:href='#gpPt5' id='gpPt6' fill='currentColor' stroke='none'/>
	<path id='gpPt7' stroke-width='0.222' stroke='currentColor' d='M0,-1.33 L-1.33,0.67 L1.33,0.67 z'/>
	<use xlink:href='#gpPt7' id='gpPt8' fill='currentColor' stroke='none'/>
	<use xlink:href='#gpPt7' id='gpPt9' stroke='currentColor' transform='rotate(180)'/>
	<use xlink:href='#gpPt9' id='gpPt10' fill='currentColor' stroke='none'/>
	<use xlink:href='#gpPt3' id='gpPt11' stroke='currentColor' transform='rotate(45)'/>
	<use xlink:href='#gpPt11' id='gpPt12' fill='currentColor' stroke='none'/>
	<path id='gpPt13' stroke-width='0.222' stroke='currentColor' d='M0,1.330 L1.265,0.411 L0.782,-1.067 L-0.782,-1.076 L-1.265,0.411 z'/>
	<use xlink:href='#gpPt13' id='gpPt14' fill='currentColor' stroke='none'/>
	<filter id='textbox' filterUnits='objectBoundingBox' x='0' y='0' height='1' width='1'>
	  <feFlood flood-color='#FFFFFF' flood-opacity='1' result='bgnd'/>
	  <feComposite in='SourceGraphic' in2='bgnd' operator='atop'/>
	</filter>
	<filter id='greybox' filterUnits='objectBoundingBox' x='0' y='0' height='1' width='1'>
	  <feFlood flood-color='lightgrey' flood-opacity='1' result='grey'/>
	  <feComposite in='SourceGraphic' in2='grey' operator='atop'/>
	</filter>
</defs>
<g fill="none" color="#FFFFFF" stroke="black" stroke-width="1.00" stroke-linecap="butt" stroke-linejoin="miter">
</g>
<g fill="none" color="black" stroke="currentColor" stroke-width="1.00" stroke-linecap="butt" stroke-linejoin="miter">
	<path stroke='black'  d='M62.2,416.7 L71.2,416.7 M615.0,416.7 L606.0,416.7  '/>	<g transform="translate(53.9,420.6)" stroke="none" fill="black" font-family="Arial" font-size="12.00"  text-anchor="end">
		<text><tspan font-family="Arial" > 0.05</tspan></text>
	</g>
</g>
<g fill="none" color="black" stroke="currentColor" stroke-width="1.00" stroke-linecap="butt" stroke-linejoin="miter">
	<path stroke='black'  d='M62.2,330.3 L71.2,330.3 M615.0,330.3 L606.0,330.3  '/>	<g transform="translate(53.9,334.2)" stroke="none" fill="black" font-family="Arial" font-size="12.00"  text-anchor="end">
		<text><tspan font-family="Arial" > 0.1</tspan></text>
	</g>
</g>
<g fill="none" color="black" stroke="currentColor" stroke-width="1.00" stroke-linecap="butt" stroke-linejoin="miter">
	<path stroke='black'  d='M62.2,243.9 L71.2,243.9 M615.0,243.9 L606.0,243.9  '/>	<g transform="translate(53.9,247.8)" stroke="none" fill="black" font-family="Arial" font-size="12.00"  text-anchor="end">
		<text><tspan font-family="Arial" > 0.15</tspan></text>
	</g>
</g>
<g fill="none" color="black" stroke="currentColor" stroke-width="1.00" stroke-linecap="butt" stroke-linejoin="miter">
	<path stroke='black'  d='M62.2,157.5 L71.2,157.5 M615.0,157.5 L606.0,157.5  '/>	<g transform="translate(53.9,161.4)" stroke="none" fill="black" font-family="Arial" font-size="12.00"  text-anchor="end">
		<text><tspan font-family="Arial" > 0.2</tspan></text>
	</g>
</g>
<g fill="none" color="black" stroke="currentColor" stroke-width="1.00" stroke-linecap="butt" stroke-linejoin="miter">
	<path stroke='black'  d='M62.2,71.1 L71.2,71.1 M615.0,71.1 L606.0,71.1  '/>	<g transform="translate(53.9,75.0)" stroke="none" fill="black" font-family="Arial" font-size="12.00"  text-anchor="end">
		<text><tspan font-family="Arial" > 0.25</tspan></text>
	</g>
</g>
<g fill="none" color="black" stroke="currentColor" stroke-width="1.00" stroke-linecap="butt" stroke-linejoin="miter">
	<path stroke='black'  d='M62.2,446.0 L62.2,437.0 M62.2,18.1 L62.2,27.1  '/>	<g transform="translate(62.2,467.9)" stroke="none" fill="black" font-family="Arial" font-size="12.00"  text-anchor="middle">
		<text><tspan font-family="Arial" > 0</tspan></text>
	</g>
</g>
<g fill="none" color="black" stroke="currentColor" stroke-width="1.00" stroke-linecap="butt" stroke-linejoin="miter">
	<path stroke='black'  d='M118.0,446.0 L118.0,437.0 M118.0,18.1 L118.0,27.1  '/>	<g transform="translate(118.0,467.9)" stroke="none" fill="black" font-family="Arial" font-size="12.00"  text-anchor="middle">
		<text><tspan font-family="Arial" > 10</tspan></text>
	</g>
</g>
<g fill="none" color="black" stroke="currentColor" stroke-width="1.00" stroke-linecap="butt" stroke-linejoin="miter">
	<path stroke='black'  d='M173.9,446.0 L173.9,437.0 M173.9,18.1 L173.9,27.1  '/>	<g transform="translate(173.9,467.9)" stroke="none" fill="black" font-family="Arial" font-size="12.00"  text-anchor="middle">
		<text><tspan font-family="Arial" > 20</tspan></text>
	</g>
</g>
<g fill="none" color="black" stroke="currentColor" stroke-width="1.00" stroke-linecap="butt" stroke-linejoin="miter">
	<path stroke='black'  d='M229.7,446.0 L229.7,437.0 M229.7,18.1 L229.7,27.1  '/>	<g transform="translate(229.7,467.9)" stroke="none" fill="black" font-family="Arial" font-size="12.00"  text-anchor="middle">
		<text><tspan font-family="Arial" > 30</tspan></text>
	</g>
</g>
<g fill="none" color="black" stroke="currentColor" stroke-width="1.00" stroke-linecap="butt" stroke-linejoin="miter">
	<path stroke='black'  d='M285.6,446.0 L285.6,437.0 M285.6,18.1 L285.6,27.1  '/>	<g transform="translate(285.6,467.9)" stroke="none" fill="black" font-family="Arial" font-size="12.00"  text-anchor="middle">
		<text><tspan font-family="Arial" > 40</tspan></text>
	</g>
</g>
<g fill="none" color="black" stroke="currentColor" stroke-width="1.00" stroke-linecap="butt" stroke-linejoin="miter">
	<path stroke='black'  d='M341.4,446.0 L341.4,437.0 M341.4,18.1 L341.4,27.1  '/>	<g transform="translate(341.4,467.9)" stroke="none" fill="black" font-family="Arial" font-size="12.00"  text-anchor="middle">
		<text><tspan font-family="Arial" > 50</tspan></text>
	</g>
</g>
<g fill="none" color="black" stroke="currentColor" stroke-width="1.00" stroke-linecap="butt" stroke-linejoin="miter">
	<path stroke='black'  d='M397.2,446.0 L397.2,437.0 M397.2,18.1 L397.2,27.1  '/>	<g transform="translate(397.2,467.9)" stroke="none" fill="black" font-family="Arial" font-size="12.00"  text-anchor="middle">
		<text><tspan font-family="Arial" > 60</tspan></text>
	</g>
</g>
<g fill="none" color="black" stroke="currentColor" stroke-width="1.00" stroke-linecap="butt" stroke-linejoin="miter">
	<path stroke='black'  d='M453.1,446.0 L453.1,437.0 M453.1,18.1 L453.1,27.1  '/>	<g transform="translate(453.1,467.9)" stroke="none" fill="black" font-family="Arial" font-size="12.00"  text-anchor="middle">
		<text><tspan font-family="Arial" > 70</tspan></text>
	</g>
</g>
<g fill="none" color="black" stroke="currentColor" stroke-width="1.00" stroke-linecap="butt" stroke-linejoin="miter">
	<path stroke='black'  d='M508.9,446.0 L508.9,437.0 M508.9,18.1 L508.9,27.1  '/>	<g transform="translate(508.9,467.9)" stroke="none" fill="black" font-family="Arial" font-size="12.00"  text-anchor="middle">
		<text><tspan font-family="Arial" > 80</tspan></text>
	</g>
</g>
<g fill="none" color="black" stroke="currentColor" stroke-width="1.00" stroke-linecap="butt" stroke-linejoin="miter">
	<path stroke='black'  d='M564.7,446.0 L564.7,437.0 M564.7,18.1 L564.7,27.1  '/>	<g transform="translate(564.7,467.9)" stroke="none" fill="black" font-family="Arial" font-size="12.00"  text-anchor="middle">
		<text><tspan font-family="Arial" > 90</tspan></text>
	</g>
</g>
<g fill="none" color="black" stroke="currentColor" stroke-width="1.00" stroke-linecap="butt" stroke-linejoin="miter">
</g>
<g fill="none" color="black" stroke="currentColor" stroke-width="1.00" stroke-linecap="butt" stroke-linejoin="miter">
	<path stroke='black'  d='M62.2,18.1 L62.2,446.0 L615.0,446.0 L615.0,18.1 L62.2,18.1 Z  '/></g>
<g fill="none" color="black" stroke="currentColor" stroke-width="1.00" stroke-linecap="butt" stroke-linejoin="miter">
</g>
	<g id="gnuplot_plot_1" ><title>pages+cached+noexternal+nosvg</title>
<g fill="none" color="black" stroke="currentColor" stroke-width="1.00" stroke-linecap="butt" stroke-linejoin="miter">
	<g transform="translate(279.8,485.9)" stroke="none" fill="black" font-family="Arial" font-size="12.00"  text-anchor="end">
		<text><tspan font-family="Arial" >pages+cached+noexternal+nosvg</tspan></text>
	</g>
</g>
<g fill="none" color="black" stroke="currentColor" stroke-width="1.00" stroke-linecap="butt" stroke-linejoin="miter">
	<path stroke='rgb(148,   0, 211)'  d='M288.1,482.0 L330.3,482.0 M62.2,437.8 L67.8,433.3 L73.4,418.8 L79.0,416.9 L84.5,414.8 L90.1,412.5
		L95.7,411.9 L101.3,409.9 L106.9,408.9 L112.5,408.4 L118.0,406.1 L123.6,404.9 L129.2,403.2 L134.8,402.9
		L140.4,402.7 L146.0,401.5 L151.5,399.6 L157.1,398.2 L162.7,397.7 L168.3,397.0 L173.9,396.5 L179.5,396.3
		L185.0,396.1 L190.6,395.4 L196.2,395.1 L201.8,394.6 L207.4,394.2 L213.0,394.1 L218.5,393.9 L224.1,393.7
		L229.7,393.7 L235.3,393.4 L240.9,393.2 L246.5,392.0 L252.1,392.0 L257.6,391.6 L263.2,391.6 L268.8,391.3
		L274.4,390.4 L280.0,389.6 L285.6,389.0 L291.1,387.0 L296.7,387.0 L302.3,386.6 L307.9,386.4 L313.5,385.8
		L319.1,385.8 L324.6,385.6 L330.2,384.4 L335.8,384.4 L341.4,383.9 L347.0,383.5 L352.6,383.5 L358.1,383.3
		L363.7,382.3 L369.3,382.0 L374.9,382.0 L380.5,380.9 L386.1,380.1 L391.6,379.2 L397.2,379.2 L402.8,378.7
		L408.4,378.5 L414.0,378.2 L419.6,378.0 L425.1,378.0 L430.7,378.0 L436.3,375.9 L441.9,375.0 L447.5,374.0
		L453.1,370.9 L458.7,369.5 L464.2,368.7 L469.8,367.4 L475.4,366.9 L481.0,365.5 L486.6,362.4 L492.2,361.9
		L497.7,359.0 L503.3,357.1 L508.9,356.4 L514.5,356.2 L520.1,355.2 L525.7,354.0 L531.2,351.4 L536.8,349.6
		L542.4,346.2 L548.0,345.7 L553.6,340.0 L559.2,334.4 L564.7,313.0 L570.3,312.1 L575.9,307.3 L581.5,251.7
		L587.1,214.9 L592.7,112.2 L598.2,73.8 L603.8,64.5 L609.4,64.5 L615.0,26.3  '/></g>
	</g>
	<g id="gnuplot_plot_2" ><title>pages+cached+noexternal+noimg</title>
<g fill="none" color="black" stroke="currentColor" stroke-width="1.00" stroke-linecap="butt" stroke-linejoin="miter">
	<g transform="translate(579.3,485.9)" stroke="none" fill="black" font-family="Arial" font-size="12.00"  text-anchor="end">
		<text><tspan font-family="Arial" >pages+cached+noexternal+noimg</tspan></text>
	</g>
</g>
<g fill="none" color="black" stroke="currentColor" stroke-width="1.00" stroke-linecap="butt" stroke-linejoin="miter">
	<path stroke='rgb(  0, 158, 115)'  d='M587.6,482.0 L629.8,482.0 M62.2,422.7 L67.8,417.0 L73.4,415.8 L79.0,415.7 L84.5,414.4 L90.1,413.1
		L95.7,409.3 L101.3,408.7 L106.9,407.7 L112.5,406.3 L118.0,406.1 L123.6,403.7 L129.2,403.4 L134.8,401.7
		L140.4,399.6 L146.0,399.4 L151.5,398.0 L157.1,397.5 L162.7,397.0 L168.3,396.3 L173.9,396.0 L179.5,395.8
		L185.0,395.8 L190.6,395.4 L196.2,395.4 L201.8,394.6 L207.4,394.1 L213.0,393.9 L218.5,393.5 L224.1,393.4
		L229.7,393.2 L235.3,393.0 L240.9,392.2 L246.5,391.8 L252.1,391.8 L257.6,391.5 L263.2,390.1 L268.8,390.1
		L274.4,389.7 L280.0,389.0 L285.6,389.0 L291.1,388.3 L296.7,387.3 L302.3,386.8 L307.9,386.4 L313.5,386.4
		L319.1,386.1 L324.6,386.1 L330.2,384.9 L335.8,383.9 L341.4,383.9 L347.0,383.7 L352.6,383.0 L358.1,383.0
		L363.7,382.8 L369.3,382.8 L374.9,382.6 L380.5,382.1 L386.1,381.8 L391.6,381.6 L397.2,381.6 L402.8,381.6
		L408.4,381.1 L414.0,378.7 L419.6,378.3 L425.1,376.9 L430.7,376.9 L436.3,376.6 L441.9,376.3 L447.5,375.7
		L453.1,375.7 L458.7,374.0 L464.2,370.9 L469.8,370.6 L475.4,369.9 L481.0,369.9 L486.6,366.9 L492.2,365.2
		L497.7,364.7 L503.3,363.6 L508.9,363.5 L514.5,361.9 L520.1,360.9 L525.7,360.7 L531.2,358.1 L536.8,356.0
		L542.4,355.2 L548.0,352.8 L553.6,352.4 L559.2,339.6 L564.7,319.7 L570.3,315.8 L575.9,313.7 L581.5,313.4
		L587.1,310.9 L592.7,272.1 L598.2,228.0 L603.8,224.2 L609.4,195.5 L615.0,81.3  '/></g>
	</g>
<g fill="none" color="#FFFFFF" stroke="rgb(  0, 158, 115)" stroke-width="2.00" stroke-linecap="butt" stroke-linejoin="miter">
</g>
<g fill="none" color="black" stroke="currentColor" stroke-width="2.00" stroke-linecap="butt" stroke-linejoin="miter">
</g>
<g fill="none" color="black" stroke="black" stroke-width="1.00" stroke-linecap="butt" stroke-linejoin="miter">
</g>
<g fill="none" color="black" stroke="currentColor" stroke-width="1.00" stroke-linecap="butt" stroke-linejoin="miter">
	<path stroke='black'  d='M62.2,18.1 L62.2,446.0 L615.0,446.0 L615.0,18.1 L62.2,18.1 Z  '/></g>
<g fill="none" color="black" stroke="currentColor" stroke-width="1.00" stroke-linecap="butt" stroke-linejoin="miter">
</g>
</g>
</svg>
